assets/logos/icons/file-doc.svg

<svg height="24" viewBox="0 0 24 24" width="24" xmlns="http://www.w3.org/2000/svg"><path d="m6.11764701 9.7h1.95588235c1.54411765 0 2.77941174 1.1 2.77941174 2.5s-1.13235291 2.5-2.77941174 2.5h-1.95588235zm1.95588235 1.2h-.51470588v2.6h.61764706c.72058823 0 1.33823529-.5 1.33823529-1.3s-.61764706-1.3-1.44117647-1.3zm4.83823534 1.3c0 .8.617647 1.4 1.4411764 1.4s1.4411765-.6 1.4411765-1.4-.6176471-1.4-1.4411765-1.4-1.4411764.6-1.4411764 1.4zm4.3235294 0c0 1.4-1.2352941 2.7-2.882353 2.7-1.6470588 0-2.8823529-1.2-2.8823529-2.7s1.2352941-2.7 2.8823529-2.7c1.6470589 0 2.882353 1.3 2.882353 2.7zm2.0588235 0c0 .8.6176471 1.4 1.4411765 1.4.9264706 0 1.4411764-.6 1.4411764-.6l.8235295.9s-.7205883 1-2.2647059 1c-1.6470589 0-2.882353-1.2-2.882353-2.7s1.2352941-2.7 2.882353-2.7c1.4411764 0 2.1617647 1 2.1617647 1l-.8235294.9s-.5147059-.6-1.3382353-.6-1.4411765.6-1.4411765 1.4zm-.8235294-6.2v-2c0-1.1-.9264706-2-2.0588235-2h-12.35294122c-1.13235294 0-2.05882353.9-2.05882353 2v16c0 1.1.92647059 2 2.05882353 2h12.35294122c1.1323529 0 2.0588235-.9 2.0588235-2v-2h-2.0588235v2h-12.35294122v-16h12.35294122v2z" fill="#492f5c" fill-rule="evenodd"/></svg>

<svg xmlns="http://www.w3.org/2000/svg" xmlns:xlink="http://www.w3.org/1999/xlink" width="24" height="24" viewBox="0 0 24 24">
  <defs>
    <path id="file-doc-a" d="M6.11764701,9.7 L8.07352936,9.7 C9.61764701,9.7 10.8529411,10.8 10.8529411,12.2 C10.8529411,13.6 9.72058819,14.7 8.07352936,14.7 L6.11764701,14.7 L6.11764701,9.7 Z M8.07352936,10.9 L7.55882348,10.9 L7.55882348,13.5 L8.17647054,13.5 C8.89705877,13.5 9.51470583,13 9.51470583,12.2 C9.51470583,11.4 8.89705877,10.9 8.07352936,10.9 Z M12.9117647,12.2 C12.9117647,13 13.5294117,13.6 14.3529411,13.6 C15.1764705,13.6 15.7941176,13 15.7941176,12.2 C15.7941176,11.4 15.1764705,10.8 14.3529411,10.8 C13.5294117,10.8 12.9117647,11.4 12.9117647,12.2 Z M17.2352941,12.2 C17.2352941,13.6 16,14.9 14.3529411,14.9 C12.7058823,14.9 11.4705882,13.7 11.4705882,12.2 C11.4705882,10.7 12.7058823,9.5 14.3529411,9.5 C16,9.5 17.2352941,10.8 17.2352941,12.2 Z M19.2941176,12.2 C19.2941176,13 19.9117647,13.6 20.7352941,13.6 C21.6617647,13.6 22.1764705,13 22.1764705,13 L23,13.9 C23,13.9 22.2794117,14.9 20.7352941,14.9 C19.0882352,14.9 17.8529411,13.7 17.8529411,12.2 C17.8529411,10.7 19.0882352,9.5 20.7352941,9.5 C22.1764705,9.5 22.8970588,10.5 22.8970588,10.5 L22.0735294,11.4 C22.0735294,11.4 21.5588235,10.8 20.7352941,10.8 C19.9117647,10.8 19.2941176,11.4 19.2941176,12.2 Z M18.4705882,6 L18.4705882,4 C18.4705882,2.9 17.5441176,2 16.4117647,2 L4.05882348,2 C2.92647054,2 1.99999995,2.9 1.99999995,4 L1.99999995,20 C1.99999995,21.1 2.92647054,22 4.05882348,22 L16.4117647,22 C17.5441176,22 18.4705882,21.1 18.4705882,20 L18.4705882,18 L16.4117647,18 L16.4117647,20 L4.05882348,20 L4.05882348,4 L16.4117647,4 L16.4117647,6 L18.4705882,6 Z"/>
  </defs>
  <use fill="#492F5C" fill-rule="evenodd" xlink:href="#file-doc-a"/>
</svg>
